X: 860
T: Alec Hercher
R: jig
M: 6/8
K: Amajor
|E|A>A (3cBA F2 D>F|E>e (3cBA G*BB>c|
A>A (3cBA F2 D2 F|E>A (3GAB c*AA>E|
A>A (3cBA F2 D>F|E>e (3cBA G*BB>e|
(3cBA (3ecA F2 D>F|E>A (3GAB c*A A>g||
a>A (3cde f*ae>c|d*bc*a B*EG>B|
a>A (3cde f*ad>f|e>A (3GAB c*AA>g|
a>A (3cde f*ae>c|d*bc*a B*EG>B|
2 A>A, (3CDE F2 D>F|E>A (3GAB c*A A2||

